X:353
T:Tipsy Parson, The
R:polka 32
C:Trad
N:Sing and Play 2
Z:Lewes
M:4/4
L:1/8
Q:1/4=180
K:D
|:e2|f2A2 f2A2|fgfe d2ef|g2B2 g2B2|gagf e2de|
f2A2 f2A2|fgfe d2cd|efed cABc|d2f2 d2:|
|:FG|A2AB AGFE|D2FA d2cB|A2AB AGFD|E2E2 E2FG|
A2AB AGFE|D2FA d2ef|gfed cABc|d2f2 d2:|]

